X: 3
T: The Cat In The Corner
R: jig
M: 6/8
L: 1/8
K: Amix
|:c2A AcA|ecA AB=c|B2G GBG|dBG Bcd|c2A AcA|ecA ABc|ded Bcd|ecA A2d:||:c2a a^ga|efe edc|B2g gfg|ded dcB|c2a a^ga|efe edc|ded Bcd|ecA A2d:|


Tune 3867	Setting 27228

